!!!OTL: Ritter und Magd Es schlief ein Herr bei seiner Magd
!!!ARE: Europa, Mitteleuropa, Deutschland (), Sachsen - Anhalt,
!!    Gegend von Halberstadt
!!!YOR: 3, S. 14
!!    1847 aufgezeichnet
!!!SCT: Q0055F
!!!YEM: Copyright 1995, estate of Helmut Schaffrath.
**kern
*ICvox
*Ivox
*M2/4
*k[f#]
*G:
{8d
=1
8g
8d
8B
8d
=2
8.g
16f#
8g}
{8b
=3
8.a
16f#
8g
8e
=4
8e
8d
8d}
{16d
16d
=5
8e
8e
8e
16g
16e
=6
8e
8d
8d}
{8d
=7
8.g
16a
8b
8g
=8
4a
8g}
==
!!!AGN: Ballade, Betrug, Schwangerschaft, Tod, Selbstmord, Herr und Magd
!! Dritte Zeile = Refrain auf sinnfreie Silben.
!!!ONB: ESAC (Essen Associative Code) Database: BALLADE
!!!AMT: simple duple
!!!AIN: vox
!!!EED: Helmut Schaffrath
!!!EEV: 1.0
*-
